!!! OTL: Berkowitz516
!!! Chapter: 1
!!! Section: IV
!!! Page: 129
!!! Mode: 
!!! Encoder: DJB
**kern
*staff1
*I"Piano
=1-
*clefG2
*k[f#]
*G:
*M4/4
4g/
4b\
4.dd\
8cc\
=2
8b/L
8g/
8a/
8b/J
4a/
4g/
=3
4b-\
4dd\
4.ffn\
8ee-\
=4
8dd\L
8b-\
8cc\
8dd\J
2b-\
=5
8a/L
8fn/
8g/
8a-/J
4g/
4e-/
=6
4g/
4b-\
2cc#\
=7
8dd\L
8b\
8g\
8a\J
4b\
8g/L
8e/J
=8
!!linebreak:original
8c#/L
8d/
8e/
8f#/J
2g/
==
*-
